svg/u1f9f7.svg

<svg viewBox="0 0 128 128" xmlns="http://www.w3.org/2000/svg">
  <g>
    <path d="M110.45,30.62c1.41-0.83,5.82-6.12,2.74-9.9c-2.01-2.47-7.12-4.84-9.55,0.39 c-2.66,5.75-3.99,10.64-14.49,9.63c-3.5-0.34-7.25-1.53-9.33-3.15c-0.64-0.5-2.12-2.05-1.05-3.53L95.1,11.8 c4.68-4.16,14.31-8.24,22.74,1.13c7.93,8.82,4.05,15.53-1.51,21.29L110.45,30.62z" fill="#2F7889"/>
    <path d="M108.91,32.49c-6.29,10.36-48.28,54.8-79.34,78.35c0.57-1.13,0.15-12.93-12.37-13.55 c-0.44-0.02-0.88,0.03-1.31,0.07c1.1-1.45,36.84-46.97,73.03-72.56L86,20.71C54.2,43.35,21.3,78.16,7.12,100.36 c-5.98,9.36-2.48,17.74,2.98,20.76c6.13,3.39,13.68,1.72,20.43-2.67c32.44-21.1,75.77-72,82.67-83.35L108.91,32.49z M20.16,103.36 c3.86,1.22,4.46,5.22,4.21,7.9c-0.27,2.84-3.08,5.87-7.17,5.87c-4.03,0-7.31-3.23-7.4-7.24C9.5,108.08,11.61,100.65,20.16,103.36z" fill="#82AEC0"/>
    <path d="M32.01,108.98c-1.13,0.88-2.44,1.87-2.44,1.87s-0.14,4.02-3.22,7.5c-3.84,4.36-8.25,4.56-8.25,4.56 s4.79,0.07,10.54-3.2C34.33,116.45,32.3,108.76,32.01,108.98z" fill="#2F7889"/>
    <path d="M15.88,97.36c-7.83,7.22-6.49,12.78-6.09,13.9c0.16-1.19-0.24-6.5,4.78-7.96 c3.53-1.02,5.58,0.06,5.58,0.06c-0.99-2.06-0.68-4.55,0.93-5.14c0.16-0.06,0.34-0.1,0.51-0.11c-1.37-0.52-2.85-0.82-4.41-0.82 C16.75,97.29,15.88,97.36,15.88,97.36z" fill="#2F7889"/>
    <path d="M99.41,44.46l5.81,1.46L100,52.26c0,0,1.92-4.11-2.03-6.18L99.41,44.46z" fill="#2F7889"/>
    <path d="M14.79,91.94c1.21,2.99-5.39,8.84-6.62,15.29c-1.5,7.87,1.28,10.66,1.28,10.66 c-2.42-0.76-4.59-4.33-3.82-10.64S14.79,91.94,14.79,91.94z" fill="#94D1E0"/>
    <path d="M27.41,78.24c2.3-0.59,10.31-9.7,15.11-14.27c4.81-4.57,21.23-21.03,18.73-20.36 c-2.3,0.62-10.73,8.15-18.87,16.32C34.69,67.67,25.11,78.84,27.41,78.24z" fill="#94D1E0"/>
    <path d="M101.15,47.45l-2.91-3.31c0,0-1.82-7.96-2.47-12.23c-0.61-3.97,1.74-3.88,4.11-3.43 c4.34,0.82,8.87,1.85,9.99,1.05c3.64-2.58,4.85-6.93,1.77-10.71c-2.01-2.47-5.79-4.83-8.58-0.63c-3.51,5.28-3.39,10.85-13.89,9.84 c-3.5-0.34-7.25-1.53-9.33-3.15c-0.64-0.5-1.66-0.28-1.05-0.83c0,0,3.78-3.29,6.67-5.59c3.41-2.71,5.72-5.61,9.64-9.37 c4.78-4.58,14.87-6.93,23.3,2.44c7.15,7.95,7.05,16.59,1.96,21.62c-2.25,2.22-4.95,4.69-6.84,6.67c-2.77,2.91-5.64,6.53-7.49,8.08 C105.05,48.73,103.12,49.33,101.15,47.45z" fill="#82AEC0"/>
    <path d="M101.22,41.08c3.05-2.69,9.76-9.17,12.96-13.66c1.59-2.23,1.77-4.48,1.47-6.19 c-0.1-0.55,0.63-0.83,0.93-0.35c1.28,2.07,1.61,5.07-0.7,8.57c-3.51,5.31-6.9,9.1-10.52,12.15C101.1,45.21,98.71,43.3,101.22,41.08 z" fill="#94D1E0"/>
    <path d="M78.39,25.18c0,0-0.17-1.1,0.95-1.42c1.4-0.4,3.58,0.92,5.46,2.2c3.01,2.05,7.75,2.27,7.75,2.27 s-4.82,1-8.42-1c-3.6-2-4.32-2.06-4.69-1.9C79.05,25.49,78.39,25.18,78.39,25.18z" fill="#2F7889"/>
    <path d="M83.76,23.03c-0.51-0.25-0.71-1-0.26-1.35c3.07-2.42,8.05-6.59,11.94-10.83 c3.29-3.58,7.06-3.14,8.96-2.74c1.07,0.22,1.12,1.44,0.15,1.9c-1.57,0.75-3.9,1.81-6.17,4.72c-3.96,5.07-7.6,8.09-9.01,8.59 C87.27,24.06,85.15,23.72,83.76,23.03z" fill="#B9E4EA"/>
  </g>
</svg>

<svg viewBox="0 0 128 128" xmlns="http://www.w3.org/2000/svg">
  <defs/>
  <path d="M110.45,30.62 C111.86,29.79 116.27,24.5 113.19,20.72 C111.18,18.25 106.07,15.88 103.64,21.11 C100.98,26.86 99.65,31.75 89.15,30.74 C85.65,30.4 81.9,29.21 79.82,27.59 C79.18,27.09 77.7,25.54 78.77,24.06 L95.1,11.8 C99.78,7.64 109.41,3.56 117.84,12.93 C125.77,21.75 121.89,28.46 116.33,34.22 L110.45,30.62 Z" fill="#2F7889"/>
  <path d="M108.91,32.49 C102.62,42.85 60.63,87.29 29.57,110.84 C30.14,109.71 29.72,97.91 17.2,97.29 C16.76,97.27 16.32,97.32 15.89,97.36 C16.99,95.91 52.73,50.39 88.92,24.8 L86,20.71 C54.2,43.35 21.3,78.16 7.12,100.36 C1.14,109.72 4.64,118.1 10.1,121.12 C16.23,124.51 23.78,122.84 30.53,118.45 C62.97,97.35 106.3,46.45 113.2,35.1 L108.91,32.49 Z M20.16,103.36 C24.02,104.58 24.62,108.58 24.37,111.26 C24.1,114.1 21.29,117.13 17.2,117.13 C13.17,117.13 9.89,113.9 9.8,109.89 C9.5,108.08 11.61,100.65 20.16,103.36 Z" fill="#82AEC0"/>
  <path d="M32.01,108.98 C30.88,109.86 29.57,110.85 29.57,110.85 C29.57,110.85 29.43,114.87 26.35,118.35 C22.51,122.71 18.1,122.91 18.1,122.91 C18.1,122.91 22.89,122.98 28.64,119.71 C34.33,116.45 32.3,108.76 32.01,108.98 Z" fill="#2F7889"/>
  <path d="M15.88,97.36 C8.05,104.58 9.39,110.14 9.79,111.26 C9.95,110.07 9.55,104.76 14.57,103.3 C18.1,102.28 20.15,103.36 20.15,103.36 C19.16,101.3 19.47,98.81 21.08,98.22 C21.24,98.16 21.42,98.12 21.59,98.11 C20.22,97.59 18.74,97.29 17.18,97.29 C16.75,97.29 15.88,97.36 15.88,97.36 Z" fill="#2F7889"/>
  <path d="M99.41,44.46 L105.22,45.92 L100,52.26 C100,52.26 101.92,48.15 97.97,46.08 L99.41,44.46 Z" fill="#2F7889"/>
  <path d="M14.79,91.94 C16,94.93 9.4,100.78 8.17,107.23 C6.67,115.1 9.45,117.89 9.45,117.89 C7.03,117.13 4.86,113.56 5.63,107.25 C6.4,100.94 14.79,91.94 14.79,91.94 Z" fill="#94D1E0"/>
  <path d="M27.41,78.24 C29.71,77.65 37.72,68.54 42.52,63.97 C47.33,59.4 63.75,42.94 61.25,43.61 C58.95,44.23 50.52,51.76 42.38,59.93 C34.69,67.67 25.11,78.84 27.41,78.24 Z" fill="#94D1E0"/>
  <path d="M101.15,47.45 L98.24,44.14 C98.24,44.14 96.42,36.18 95.77,31.91 C95.16,27.94 97.51,28.03 99.88,28.48 C104.22,29.3 108.75,30.33 109.87,29.53 C113.51,26.95 114.72,22.6 111.64,18.82 C109.63,16.35 105.85,13.99 103.06,18.19 C99.55,23.47 99.67,29.04 89.17,28.03 C85.67,27.69 81.92,26.5 79.84,24.88 C79.2,24.38 78.18,24.6 78.79,24.05 C78.79,24.05 82.57,20.76 85.46,18.46 C88.87,15.75 91.18,12.85 95.1,9.09 C99.88,4.51 109.97,2.16 118.4,11.53 C125.55,19.48 125.45,28.12 120.36,33.15 C118.11,35.37 115.41,37.84 113.52,39.82 C110.75,42.73 107.88,46.35 106.03,47.9 C105.05,48.73 103.12,49.33 101.15,47.45 Z" fill="#82AEC0"/>
  <path d="M101.22,41.08 C104.27,38.39 110.98,31.91 114.18,27.42 C115.77,25.19 115.95,22.94 115.65,21.23 C115.55,20.68 116.28,20.4 116.58,20.88 C117.86,22.95 118.19,25.95 115.88,29.45 C112.37,34.76 108.98,38.55 105.36,41.6 C101.1,45.21 98.71,43.3 101.22,41.08 Z" fill="#94D1E0"/>
  <path d="M78.39,25.18 C78.39,25.18 78.22,24.08 79.34,23.76 C80.74,23.36 82.92,24.68 84.8,25.96 C87.81,28.01 92.55,28.23 92.55,28.23 C92.55,28.23 87.73,29.23 84.13,27.23 C80.53,25.23 79.81,25.17 79.44,25.33 C79.05,25.49 78.39,25.18 78.39,25.18 Z" fill="#2F7889"/>
  <path d="M83.76,23.03 C83.25,22.78 83.05,22.03 83.5,21.68 C86.57,19.26 91.55,15.09 95.44,10.85 C98.73,7.27 102.5,7.71 104.4,8.11 C105.47,8.33 105.52,9.55 104.55,10.01 C102.98,10.76 100.65,11.82 98.38,14.73 C94.42,19.8 90.78,22.82 89.37,23.32 C87.27,24.06 85.15,23.72 83.76,23.03 Z" fill="#B9E4EA"/>
</svg>
